X:226
T: AUF DEINEN HOEHN DU MEIN LIEB VATERLAND
N: F0393
O: Europa, Mitteleuropa, Deutschland; Schottland
R: Vaterlands -, Heimat - Lied, nationalistisch
M: 4/4
L: 1/16
K: Eb
B2 | e4d2c2B4c2de | G2G2A2F2E4z2
B2 | e4d2c2B4c2de | G2G2A2F2E4z2
B2 | G3EG2B2e4c2de | d2B2c2=A2B6
cd | e4d2c2B4c2A2 | G3GA2F2E4z2
B2 | G3EG2B2e4c2de | d2B2c2=A2B6
cd | f2e2d2c2B4=A2Bc | G2G2A2F2E4z2

@@@ Tune index: 5657
